Newaita-dark/emblems/48/emblem-mail.svg

<svg height="48" viewBox="0 0 48 48" width="48" xmlns="http://www.w3.org/2000/svg"><path d="m7.9375 4.34375h31.753906c3.289063 0 5.953125 2.664062 5.953125 5.953125v27.785156c0 3.289063-2.664062 5.953125-5.953125 5.953125h-31.753906c-3.289062 0-5.953125-2.664062-5.953125-5.953125v-27.785156c0-3.289063 2.664063-5.953125 5.953125-5.953125zm0 0" fill="#424242"/><path d="m9.921875 8.3125c-.304687 0-.601563.035156-.882813.097656l14.777344 13.136719 14.777344-13.136719c-.285156-.0625-.582031-.097656-.886719-.097656zm-3.792969 2.796875c-.113281.371094-.175781.765625-.175781 1.171875v23.816406c0 2.199219 1.769531 3.96875 3.96875 3.96875h27.785156c2.199219 0 3.96875-1.769531 3.96875-3.96875v-23.816406c0-.40625-.0625-.800781-.175781-1.171875l-16.371094 14.558594c-.75.664062-1.878906.664062-2.625 0zm0 0" fill="#fafafa"/></svg>

<?xml version="1.0" encoding="UTF-8"?>
<svg xmlns="http://www.w3.org/2000/svg" xmlns:xlink="http://www.w3.org/1999/xlink" width="48px" height="48px" viewBox="0 0 48 48" version="1.1">
<g id="surface1">
<path style=" stroke:none;fill-rule:nonzero;fill:rgb(25.882354%,25.882354%,25.882354%);fill-opacity:1;" d="M 7.9375 4.34375 L 39.691406 4.34375 C 42.980469 4.34375 45.644531 7.007812 45.644531 10.296875 L 45.644531 38.082031 C 45.644531 41.371094 42.980469 44.035156 39.691406 44.035156 L 7.9375 44.035156 C 4.648438 44.035156 1.984375 41.371094 1.984375 38.082031 L 1.984375 10.296875 C 1.984375 7.007812 4.648438 4.34375 7.9375 4.34375 Z M 7.9375 4.34375 "/>
<path style=" stroke:none;fill-rule:nonzero;fill:rgb(98.039216%,98.039216%,98.039216%);fill-opacity:1;" d="M 9.921875 8.3125 C 9.617188 8.3125 9.320312 8.347656 9.039062 8.410156 L 23.816406 21.546875 L 38.59375 8.410156 C 38.308594 8.347656 38.011719 8.3125 37.707031 8.3125 Z M 6.128906 11.109375 C 6.015625 11.480469 5.953125 11.875 5.953125 12.28125 L 5.953125 36.097656 C 5.953125 38.296875 7.722656 40.066406 9.921875 40.066406 L 37.707031 40.066406 C 39.90625 40.066406 41.675781 38.296875 41.675781 36.097656 L 41.675781 12.28125 C 41.675781 11.875 41.613281 11.480469 41.5 11.109375 L 25.128906 25.667969 C 24.378906 26.332031 23.25 26.332031 22.503906 25.667969 Z M 6.128906 11.109375 "/>
</g>
</svg>
